X:3592
T:Le rocher de Carlat
O:england
C:Repertori 57
M:3/8
L:1/8
K:C
cde|f2e|d/c/d/e/f/e/|dcd|\
cde|fed|cde|1 d3:|2 c2c||
|:A2A|d2c|B/c/df|edc|\
A2A|d2c|B/c/dB|c3:|


